images/icon-office.svg

<svg xmlns="http://www.w3.org/2000/svg" width="32" height="32"><path fill="#2C2A29" d="M0 32h16V0H0v32zM10 4h4v4h-4V4zm0 8h4v4h-4v-4zm0 8h4v4h-4v-4zM2 4h4v4H2V4zm0 8h4v4H2v-4zm0 8h4v4H2v-4zm16-10h14v2H18v-2zm0 22h4v-8h6v8h4V14H18v18z"/></svg>

<?xml version="1.0" encoding="utf-8"?>
<!-- Generator: Adobe Illustrator 17.0.0, SVG Export Plug-In . SVG Version: 6.00 Build 0)  -->
<!DOCTYPE svg PUBLIC "-//W3C//DTD SVG 1.1//EN" "http://www.w3.org/Graphics/SVG/1.1/DTD/svg11.dtd">
<svg version="1.1" id="Layer_1" xmlns="http://www.w3.org/2000/svg" xmlns:xlink="http://www.w3.org/1999/xlink" x="0px" y="0px"
	 width="32px" height="32px" viewBox="0 0 32 32" enable-background="new 0 0 32 32" xml:space="preserve">
<path fill="#2C2A29" d="M0,32h16V0H0V32z M10,4h4v4h-4V4z M10,12h4v4h-4V12z M10,20h4v4h-4V20z M2,4h4v4H2V4z M2,12h4v4H2V12z M2,20
	h4v4H2V20z M18,10h14v2H18V10z M18,32h4v-8h6v8h4V14H18V32z"/>
</svg>
